icons/theatre-11.svg

<?xml version="1.0" encoding="UTF-8" standalone="no"?>
<!-- Generator: Adobe Illustrator 17.1.0, SVG Export Plug-In . SVG Version: 6.00 Build 0)  -->

<svg
   xmlns:dc="http://purl.org/dc/elements/1.1/"
   xmlns:cc="http://creativecommons.org/ns#"
   xmlns:rdf="http://www.w3.org/1999/02/22-rdf-syntax-ns#"
   xmlns:svg="http://www.w3.org/2000/svg"
   xmlns="http://www.w3.org/2000/svg"
   xmlns:sodipodi="http://sodipodi.sourceforge.net/DTD/sodipodi-0.dtd"
   xmlns:inkscape="http://www.inkscape.org/namespaces/inkscape"
   version="1.1"
   id="svg4764"
   x="0px"
   y="0px"
   height='11'
   width='11'
   viewBox="0 0 11 11"
   enable-background="new 0 0 11 11"
   xml:space="preserve"
   inkscape:version="0.91 r13725"
   sodipodi:docname="theatre-11.svg"><metadata
     id="metadata8"><rdf:RDF><cc:Work
         rdf:about=""><dc:format>image/svg+xml</dc:format><dc:type
           rdf:resource="http://purl.org/dc/dcmitype/StillImage" /><dc:title></dc:title></cc:Work></rdf:RDF></metadata><defs
     id="defs6" /><sodipodi:namedview
     pagecolor="#ffffff"
     bordercolor="#666666"
     borderopacity="1"
     objecttolerance="10"
     gridtolerance="10"
     guidetolerance="10"
     inkscape:pageopacity="0"
     inkscape:pageshadow="2"
     inkscape:window-width="895"
     inkscape:window-height="763"
     id="namedview4"
     showgrid="false"
     inkscape:snap-bbox="true"
     inkscape:bbox-paths="true"
     inkscape:bbox-nodes="true"
     inkscape:snap-bbox-edge-midpoints="true"
     inkscape:snap-bbox-midpoints="true"
     inkscape:object-paths="true"
     inkscape:snap-intersection-paths="true"
     inkscape:object-nodes="true"
     inkscape:snap-smooth-nodes="true"
     inkscape:zoom="40.170826"
     inkscape:cx="3.4580579"
     inkscape:cy="5.3199278"
     inkscape:window-x="0"
     inkscape:window-y="0"
     inkscape:window-maximized="0"
     inkscape:current-layer="svg4764"><inkscape:grid
       type="xygrid"
       id="grid3336"
       spacingx="0.5"
       spacingy="0.5"
       empspacing="2"
       color="#ff0000"
       opacity="0.1254902" /></sodipodi:namedview><path
     style="fill:#000000;fill-opacity:1"
     d="M 0.60546875 0.69921875 C 0.30271645 0.69921875 0 1.0019352 0 1.3046875 L 0 5.0390625 C 0 6.4519066 0.57798169 8 3 8 L 3.5 8 L 3.5 6.1835938 L 1.2109375 6.1757812 C 1.2109375 6.1757812 1.5135824 5.0390625 3.0273438 5.0390625 C 3.330096 5.0390625 3.4309777 5.0397075 3.6328125 5.140625 L 3.6328125 3.7265625 C 3.6328125 3.1210579 3.8346116 2.7187679 4.2382812 2.4160156 C 4.5410336 2.1132647 4.7890266 2 5.3945312 2 L 6 2 L 6 1.3945312 C 6 1.0917789 5.8027523 0.73632812 5.5 0.73632812 C 4.8944954 0.73632812 4.3392704 1.3046875 3.0273438 1.3046875 C 2.0181694 1.3046875 1.2109734 0.69921875 0.60546875 0.69921875 z M 1.75 2.5 A 0.75 0.75 0 0 1 2.5 3.25 A 0.75 0.75 0 0 1 1.75 4 A 0.75 0.75 0 0 1 1 3.25 A 0.75 0.75 0 0 1 1.75 2.5 z M 5.5 3 C 5.1972477 3 4.9453125 3.4238102 4.9453125 3.7265625 L 4.9453125 7.4609375 C 4.9453125 8.8737815 5.5506378 10.488281 7.9726562 10.488281 C 10.394674 10.488281 11 8.7728641 11 7.4609375 L 11 3.7265625 C 11 3.4238102 10.802753 3 10.5 3 C 9.8944958 3 8.9082568 3.5 8 3.5 C 7.0917431 3.5 6.1055046 3 5.5 3 z M 6.75 5 A 0.75 0.75 0 0 1 7.5 5.75 A 0.75 0.75 0 0 1 6.75 6.5 A 0.75 0.75 0 0 1 6 5.75 A 0.75 0.75 0 0 1 6.75 5 z M 9.25 5 A 0.75 0.75 0 0 1 10 5.75 A 0.75 0.75 0 0 1 9.25 6.5 A 0.75 0.75 0 0 1 8.5 5.75 A 0.75 0.75 0 0 1 9.25 5 z M 6.15625 8.0664062 L 9.890625 8.0664062 C 9.890625 8.0664062 9.5879802 9.2773438 8.0742188 9.2773438 C 6.5604572 9.2773438 6.15625 8.0664062 6.15625 8.0664062 z "
     id="path6370" /></svg>

<?xml version="1.0" encoding="utf-8"?>
<!-- Generator: Adobe Illustrator 19.2.1, SVG Export Plug-In . SVG Version: 6.00 Build 0)  -->
<!DOCTYPE svg PUBLIC "-//W3C//DTD SVG 1.1//EN" "http://www.w3.org/Graphics/SVG/1.1/DTD/svg11.dtd">
<svg version="1.1"
	 id="svg4764" inkscape:version="0.91 r13725" sodipodi:docname="theatre-11.svg" xmlns:cc="http://creativecommons.org/ns#" xmlns:dc="http://purl.org/dc/elements/1.1/" xmlns:inkscape="http://www.inkscape.org/namespaces/inkscape" xmlns:rdf="http://www.w3.org/1999/02/22-rdf-syntax-ns#" xmlns:sodipodi="http://sodipodi.sourceforge.net/DTD/sodipodi-0.dtd" xmlns:svg="http://www.w3.org/2000/svg"
	 xmlns="http://www.w3.org/2000/svg" xmlns:xlink="http://www.w3.org/1999/xlink" x="0px" y="0px" width="11px" height="11px"
	 viewBox="0 0 11 11" style="enable-background:new 0 0 11 11;" xml:space="preserve">
<path id="path6370" d="M0.6055,0.6992C0.3027,0.6992,0,1.0019,0,1.3047v3.7344C0,6.4519,0.578,8,3,8h0.5V6.1836L1.2109,6.1758
	c0,0,0.3026-1.1367,1.8164-1.1367c0.3028,0,0.4036,0.0006,0.6055,0.1016V3.7266c0-0.6055,0.2018-1.0078,0.6055-1.3105
	C4.541,2.1133,4.789,2,5.3945,2H6V1.3945c0-0.3028-0.1972-0.6582-0.5-0.6582c-0.6055,0-1.1607,0.5684-2.4727,0.5684
	C2.0182,1.3047,1.211,0.6992,0.6055,0.6992z M1.75,2.5c0.4142,0,0.75,0.3358,0.75,0.75S2.1642,4,1.75,4S1,3.6642,1,3.25
	S1.3358,2.5,1.75,2.5z M5.5,3C5.1972,3,4.9453,3.4238,4.9453,3.7266v3.7344c0,1.4128,0.6053,3.0273,3.0273,3.0273
	S11,8.7729,11,7.4609V3.7266C11,3.4238,10.8028,3,10.5,3C9.8945,3,8.9083,3.5,8,3.5S6.1055,3,5.5,3z M6.75,5
	C7.1642,5,7.5,5.3358,7.5,5.75S7.1642,6.5,6.75,6.5S6,6.1642,6,5.75S6.3358,5,6.75,5z M9.25,5C9.6642,5,10,5.3358,10,5.75
	S9.6642,6.5,9.25,6.5S8.5,6.1642,8.5,5.75S8.8358,5,9.25,5z M6.1562,8.0664h3.7344c0,0-0.3026,1.2109-1.8164,1.2109
	S6.1562,8.0664,6.1562,8.0664z"/>
</svg>
